!!!!SEGMENT: pl-cz--iii-882--001-007_brykner-jerzy--completorium-c-nunc-dimittis.krn
!!!cenid: 17xx:867
!!!COM: Brykner, Jerzy
!!!COM-rismID: pe30025739
!!!CDT: 1705-1760
!!!CNT: Polish
!!!OPR: Completorium C
!!!OTL: Nunc dimittis
!!!OMV: 007
!!!PDT:
!!!AGN: Completorium
!!!YEC: Copyright 2022 Narodowy Instytut Fryderyka Chopina (https://polishscores.org)
!!!YEM: License CC-BY-4.0 (https://creativecommons.org/licenses/by/4.0)
!!!SMS-siglum: PL-CZ
!!!SMS-shelfmark: III-882
!!!SMS-shelfwork: 001-007 M
!!!SMS-variant:
!!!SMS-altvar:
!!!NIFC-rismSourceID: 300033576
!!!NIFC-rismChildID: 300033576
!!!NIFC-islandoraID: pl-cz:41423
!!!URL-pdf-islandora: https://repozytorium.nifc.pl/islandora/object/pl-cz%3A41423/datastream/PDF/view
!!!URL-scan: https://polish.musicsources.pl/pl/lokalizacje/galeria/rekopisy/7021/1 @EN{Scan on Polish Music Sources Website} @PL{Skany w portalu Dziedzictwo Muzyki Polskiej w otwartym dostępie}
!!!IIIF:
!!!ONB-nifc: UWAGA: części Completorium: Cum invocarem, In te Domine speravi, Qui habitat, Ecce nunc benedicite, Te lucis ante terminum, In manus tuas, Nunc dimittis. Uwaga: niekompletne partie A, B, vl 1.
!!!AIN: 1 alto 1 empty 1 organ 1 tenor 2 violn 1 vox
!!!key:
**kern	**fba	**kern	**kern	**kern	**kern	**kern	**text	**kern	**text
*	*	*group2	*group2	*group1	*group1	*group1	*	*group1	*
*part7	*	*part6	*part5	*part4	*part3	*part2	*	*part1	*
*staff7	*	*staff6	*staff5	*staff4	*staff3	*staff2	*	*staff1	*
*Iorgan	*	*Ivioln	*Ivioln	*Iempty	*Itenor	*Ialto	*	*Ivox	*
*I"Organo.	*	*I"Violino Secundo.	*I"Violino Primo.	*I"[Basso]	*I"[Tenor]	*I"[Alto]	*	*I"Canto.	*
*I'org	*	*I'vl II	*I'vl I	*I'B	*I'T	*I'A	*	*I'C	*
*clefF4	*	*clefG2	*clefG2	*clefF4	*clefC4	*clefC3	*	*clefC1	*
*k[]	*	*k[]	*k[]	*k[]	*k[]	*k[]	*	*k[]	*
*C:	*	*C:	*C:	*C:	*C:	*C:	*	*C:	*
*M4/4	*	*M4/4	*M4/4	*M4/4	*M4/4	*M4/4	*	*M4/4	*
*met(c)	*	*met(c)	*met(c)	*met(c)	*met(c)	*met(c)	*	*met(c)	*
=1	=1	=1	=1	=1	=1	=1	=1	=1	=1
!LO:TX:b:Bi:t=Nunc dimittis	!	!	!	!LO:TX:a:t=P:problem=nazwa głosu wzięta z karty tytułowej	!LO:TX:a:t=P:problem=nazwa głosu wzięta z karty tytułowej	!LO:TX:a:t=P:problem=nazwa głosu wzięta z karty tytułowej	!	!	!
!LO:TX:a:Bi:t=Allegro.	!	!LO:TX:a:t=P:problem=partia niekompletna [PL-CZ III-882&colon;20 dopisane ołówkiem "vln II nie zawiera&colon; Nunc dimitis"]	!LO:TX:a:t=P:problem=partia niekompletna [brak części Nunc dimittis]	!LO:TX:a:t=P:problem=partia niekompletna [brak części Nunc dimittis]	!LO:TX:a:t=P:problem=brak partii	!	!	!	!
4c\	.	1ryy	1ryy	1ryy	1ryy	00r	.	00r	.
8G\L	.	.	.	.	.	.	.	.	.
8E\J	.	.	.	.	.	.	.	.	.
!LO:TX:a:i:t=S.	!	!	!	!	!	!	!	!	!
8C/L	.	.	.	.	.	.	.	.	.
8C/	.	.	.	.	.	.	.	.	.
8E/	.	.	.	.	.	.	.	.	.
8C/J	.	.	.	.	.	.	.	.	.
=2	=2	=2	=2	=2	=2	=2	=2	=2	=2
!LO:TX:a:t=P:problem=mixed beam	!	!	!	!	!	!	!	!	!
8G\L	.	1ryy	1ryy	1ryy	1ryy	.	.	.	.
8G\	.	.	.	.	.	.	.	.	.
8G\	.	.	.	.	.	.	.	.	.
8GG/J	.	.	.	.	.	.	.	.	.
!LO:LB:g=original	!	!	!	!	!	!	!	!	!
8C/L	.	.	.	.	.	.	.	.	.
8C/	.	.	.	.	.	.	.	.	.
8C/	.	.	.	.	.	.	.	.	.
8F/J	.	.	.	.	.	.	.	.	.
=3	=3	=3	=3	=3	=3	=3	=3	=3	=3
8C/L	.	1ryy	1ryy	1ryy	1ryy	.	.	.	.
8C/J	.	.	.	.	.	.	.	.	.
8F\L	6	.	.	.	.	.	.	.	.
8F\J	5	.	.	.	.	.	.	.	.
8G\L	6 4	.	.	.	.	.	.	.	.
8G\	5 3	.	.	.	.	.	.	.	.
8G\	.	.	.	.	.	.	.	.	.
8G\J	.	.	.	.	.	.	.	.	.
=4	=4	=4	=4	=4	=4	=4	=4	=4	=4
!LO:TX:a:t=P:problem=mixed beam	!	!	!	!	!	!	!	!	!
8G\L	.	1ryy	1ryy	1ryy	1ryy	.	.	.	.
8GG/	.	.	.	.	.	.	.	.	.
8GG/	.	.	.	.	.	.	.	.	.
8GG/J	.	.	.	.	.	.	.	.	.
8BB/L	6	.	.	.	.	.	.	.	.
8BB/	.	.	.	.	.	.	.	.	.
8BB/	.	.	.	.	.	.	.	.	.
8BB/J	.	.	.	.	.	.	.	.	.
=5	=5	=5	=5	=5	=5	=5	=5	=5	=5
8C/L	.	1ryy	1ryy	1ryy	1ryy	0r	.	0r	.
8C/	.	.	.	.	.	.	.	.	.
8E/	.	.	.	.	.	.	.	.	.
8C/J	.	.	.	.	.	.	.	.	.
8F\L	.	.	.	.	.	.	.	.	.
8F\	.	.	.	.	.	.	.	.	.
8F\	6	.	.	.	.	.	.	.	.
8F\J	5	.	.	.	.	.	.	.	.
=6	=6	=6	=6	=6	=6	=6	=6	=6	=6
!LO:TX:a:t=P:problem=mixed beam	!	!	!	!	!	!	!	!	!
8G\L	.	1ryy	1ryy	1ryy	1ryy	.	.	.	.
8GG/	.	.	.	.	.	.	.	.	.
8BB/	5	.	.	.	.	.	.	.	.
8GG/J	.	.	.	.	.	.	.	.	.
8C/L	.	.	.	.	.	.	.	.	.
8C/	.	.	.	.	.	.	.	.	.
8C/	.	.	.	.	.	.	.	.	.
8F/J	6	.	.	.	.	.	.	.	.
=7	=7	=7	=7	=7	=7	=7-	=7	=7-	=7
4G\	4	1ryy	1ryy	1ryy	1ryy	2r	.	2r	.
4GG/	3	.	.	.	.	.	.	.	.
!LO:TX:a:t=T.	!	!	!	!	!	!	!	!	!
4c\	.	.	.	.	.	4g\	Nunc	4ee\	Nunc
4G\	.	.	.	.	.	4g\	di-	4dd\	di-
=8	=8	=8	=8	=8	=8	=8	=8	=8	=8
8E\L	.	1ryy	1ryy	1ryy	1ryy	8g\	-mit-	8ee\	-mit-
8C\J	.	.	.	.	.	8g\	-tis	8ee\	-tis
8r	.	.	.	.	.	8r	.	8r	.
8C/	.	.	.	.	.	8g\	di-	8cc\	di-
!LO:LB:g=original	!	!	!	!	!	!	!	!	!
8E\L	6	.	.	.	.	8g\	-mit-	8cc\	-mit-
8G\	.	.	.	.	.	8g\	-tis	8dd\	-tis
8c\	.	.	.	.	.	8g\	ser-	8ee\	ser-
8B\J	6	.	.	.	.	8g\	-vum	8dd\	-vum
=9	=9	=9	=9	=9	=9	=9	=9	=9	=9
4c\	.	1ryy	1ryy	1ryy	1ryy	4g\	tu-	4ee\	tu-
4B\	6	.	.	.	.	4g\	-um	4dd\	-um
4A\	7	.	.	.	.	4.g\	Do-	4.cc\	Do-
4D\	7 #	.	.	.	.	.	.	.	.
.	.	.	.	.	.	8f#X\	-mi-	8cc\	-mi-
=10	=10	=10	=10	=10	=10	=10	=10	=10	=10
4G\	.	1ryy	1ryy	1ryy	1ryy	4g\	-ne	8b\	-ne
.	.	.	.	.	.	.	.	8g\	se-
4r	.	.	.	.	.	4r	.	8b\	-cun-
.	.	.	.	.	.	.	.	16a\LL	-dum
.	.	.	.	.	.	.	.	16g\JJ	.
*	*	*	*	*	*	*	*	*2\right	*
8r	.	.	.	.	.	8r	.	[2ff\	ver-
8D\	n	.	.	.	.	8f\	se-	.	.
8F\L	6	.	.	.	.	8a\	-cun-	.	.
16E\L	.	.	.	.	.	16g\LL	-dum	.	.
16D\JJ	.	.	.	.	.	16f\JJ	.	.	.
=11	=11	=11	=11	=11	=11	=11	=11	=11	=11
4B\	6 5	1ryy	1ryy	1ryy	1ryy	4g\	ver-	4ff\]	.
!	!	!	!	!	!	!	!	!LO:LB:g=original	!
4c\	.	.	.	.	.	4g\	-b(um)	4ee\	-bum
!	!	!	!	!	!	!LO:LB:g=original	!	!	!
4.G\	.	.	.	.	.	4g\	tu-	8ee\	tu-
.	.	.	.	.	.	.	.	8dd\	-um
.	.	.	.	.	.	8g\	-um	4dd\	in
8F\	.	.	.	.	.	8g\	in	.	.
=12	=12	=12	=12	=12	=12	=12	=12	=12	=12
4E\	7 #	1ryy	1ryy	1ryy	1ryy	4g#X\	pa-	4dd\	pa-
4A\	.	.	.	.	.	2a\	.	4cc\	.
*2\right	*	*	*	*	*	*	*	*	*
2E\	4	.	.	.	.	.	.	2b\	.
.	#	.	.	.	.	4g#X\	.	.	.
=13	=13	=13	=13	=13	=13	=13	=13	=13	=13
!LO:TX:a:t=P:problem=mixed beam	!	!	!	!	!	!	!	!	!
8AA/L	.	1ryy	1ryy	1ryy	1ryy	4a\	-ce	8a\	-ce
8A\J	.	.	.	.	.	.	.	8cc\	se-
8c\L	6	.	.	.	.	4r	.	8ee\	-cun-
16B\L	.	.	.	.	.	.	.	16dd\LL	-dum
16A\JJ	.	.	.	.	.	.	.	16cc\JJ	.
4.d\	.	.	.	.	.	8r	.	4.ff\	ver-
.	.	.	.	.	.	8a\	se-	.	.
.	.	.	.	.	.	8a\	-cun-	.	.
8c\	.	.	.	.	.	8a\	-dum	8ee\	-bum
=14	=14	=14	=14	=14	=14	=14	=14	=14	=14
8B\L	6	1ryy	1ryy	1ryy	1ryy	4.g\	ver-	4dd\	tu-
8A\	.	.	.	.	.	.	.	.	.
8G\	.	.	.	.	.	.	.	8dd\	-um
8E\J	6	.	.	.	.	8g\	-bum	8ee\	in
2F\	7	.	.	.	.	4a\	tu-	8ee\L	pa-
.	6	.	.	.	.	.	.	16dd\L	.
.	5	.	.	.	.	.	.	16cc\JJ	.
.	.	.	.	.	.	8a\	-um	8dd\L	.
.	.	.	.	.	.	8a\	in	8cc\J	.
!LO:LB:g=original	!	!	!	!	!	!	!	!	!
=15	=15	=15	=15	=15	=15	=15	=15	=15	=15
4F\	4 2	1ryy	1ryy	1ryy	1ryy	1g	pa-	4b\	.
8E\L	6	.	.	.	.	.	.	2cc\	.
8F\J	.	.	.	.	.	.	.	.	.
2G\	.	.	.	.	.	.	.	.	.
.	.	.	.	.	.	.	.	4b\	.
=16	=16	=16	=16	=16	=16	=16	=16	=16	=16
4C/	.	1ryy	1ryy	1ryy	1ryy	4g\	-ce	4cc\	-ce.
!LO:TX:a:t=S.	!	!	!	!	!	!	!	!	!
8E\L	.	.	.	.	.	4r	.	4r	.
8C\J	.	.	.	.	.	.	.	.	.
8G\L	.	.	.	.	.	2r	.	2r	.
8A\	.	.	.	.	.	.	.	.	.
8F\	6	.	.	.	.	.	.	.	.
8G\J	.	.	.	.	.	.	.	.	.
!	!	!	!	!	!	!LO:LB:g=original	!	!LO:LB:g=original	!
=17	=17	=17	=17	=17	=17	=17	=17	=17	=17
8C/L	.	1ryy	1ryy	1ryy	1ryy	2r	.	00r	.
8C/	.	.	.	.	.	.	.	.	.
8E/	.	.	.	.	.	.	.	.	.
8D/J	.	.	.	.	.	.	.	.	.
8C/L	.	.	.	.	.	8g\	Qu-	.	.
8C/	.	.	.	.	.	[8g\	-ia	.	.
8C/	.	.	.	.	.	16g\LL]	.	.	.
.	.	.	.	.	.	16a\JJ	.	.	.
8C/J	.	.	.	.	.	16b\LL	vi-	.	.
.	.	.	.	.	.	16cc\JJ	.	.	.
=18	=18	=18	=18	=18	=18	=18	=18	=18	=18
!LO:TX:a:t=P:problem=mixed beam	!	!	!	!	!	!	!	!	!
8C/L	.	1ryy	1ryy	1ryy	1ryy	16b\LL	-de-	.	.
.	.	.	.	.	.	16a\JJ	.	.	.
8C/	.	.	.	.	.	8g\	-runt	.	.
8c\	.	.	.	.	.	8r	.	.	.
8B\J	.	.	.	.	.	4cc\	o-	.	.
8A\L	6\	.	.	.	.	.	.	.	.
8F#X\	6	.	.	.	.	16b\LL	.	.	.
.	.	.	.	.	.	16a\JJ	.	.	.
8G\	.	.	.	.	.	8b\	.	.	.
8C\J	6	.	.	.	.	16a\	-cu-	.	.
.	5	.	.	.	.	16g\	-li	.	.
=19	=19	=19	=19	=19	=19	=19	=19	=19	=19
8D/L	.	1ryy	1ryy	1ryy	1ryy	16f#X\LL	me-	.	.
.	.	.	.	.	.	16e\JJ	.	.	.
8D/	.	.	.	.	.	8d\	-i	.	.
8D/	.	.	.	.	.	4r	.	.	.
8BB/J	.	.	.	.	.	.	.	.	.
8C/L	.	.	.	.	.	4.e\	sa-	.	.
8C/	.	.	.	.	.	.	.	.	.
8C/	.	.	.	.	.	.	.	.	.
8C/J	6	.	.	.	.	16a\LL	-lu-	.	.
.	.	.	.	.	.	16g\JJ	.	.	.
=20	=20	=20	=20	=20	=20	=20	=20	=20	=20
8D\L	#	1ryy	1ryy	1ryy	1ryy	8f#X\L	-ta-	.	.
8D\	.	.	.	.	.	16e\L	.	.	.
.	.	.	.	.	.	16d\JJ	.	.	.
8F#X\	5	.	.	.	.	8cc\	.	.	.
8G\J	.	.	.	.	.	16b\LL	-re	.	.
.	.	.	.	.	.	16a\JJ	.	.	.
!	!	!	!	!	!	!LO:LB:g=original	!	!	!
8D\L	4	.	.	.	.	4g\	tu-	.	.
8D\J	.	.	.	.	.	.	.	.	.
!LO:LB:g=original	!	!	!	!	!	!	!	!	!
8DD/L	#	.	.	.	.	4aT\	.	.	.
8DD/J	.	.	.	.	.	.	.	.	.
=21	=21	=21	=21	=21	=21	=21	=21	=21	=21
4GG/	.	1ryy	1ryy	1ryy	1ryy	4g\	-um	00r	.
!LO:TX:a:t=S.	!	!	!	!	!	!	!	!	!
8BB/L	.	.	.	.	.	4r	.	.	.
8GG/J	.	.	.	.	.	.	.	.	.
8D\L	#	.	.	.	.	2r	.	.	.
8E\	.	.	.	.	.	.	.	.	.
8C\	.	.	.	.	.	.	.	.	.
8D\J	#	.	.	.	.	.	.	.	.
=22	=22	=22	=22	=22	=22	=22	=22	=22	=22
!LO:TX:a:t=P:problem=mixed beam	!	!	!	!	!	!	!	!	!
8GG/L	.	1ryy	1ryy	1ryy	1ryy	00r	.	.	.
8G\	.	.	.	.	.	.	.	.	.
8G\	.	.	.	.	.	.	.	.	.
8G\J	.	.	.	.	.	.	.	.	.
8G\L	.	.	.	.	.	.	.	.	.
8G\	.	.	.	.	.	.	.	.	.
8A\	6\	.	.	.	.	.	.	.	.
8B\J	.	.	.	.	.	.	.	.	.
=23	=23	=23	=23	=23	=23	=23	=23	=23	=23
8E\L	6	1ryy	1ryy	1ryy	1ryy	.	.	.	.
8E\	.	.	.	.	.	.	.	.	.
8F#X\	.	.	.	.	.	.	.	.	.
8G\J	.	.	.	.	.	.	.	.	.
8D\L	6 4	.	.	.	.	.	.	.	.
8D\	5 #	.	.	.	.	.	.	.	.
8D\	.	.	.	.	.	.	.	.	.
8D\J	.	.	.	.	.	.	.	.	.
=24	=24	=24	=24	=24	=24	=24	=24	=24	=24
8D/L	.	1ryy	1ryy	1ryy	1ryy	.	.	.	.
8D/	.	.	.	.	.	.	.	.	.
8D/	.	.	.	.	.	.	.	.	.
8C/J	.	.	.	.	.	.	.	.	.
8BB/L	6\	.	.	.	.	.	.	.	.
8AA/	.	.	.	.	.	.	.	.	.
8D/	6	.	.	.	.	.	.	.	.
8D/J	5	.	.	.	.	.	.	.	.
=25	=25	=25	=25	=25	=25	=25	=25	=25	=25
8E\L	#	1ryy	1ryy	1ryy	1ryy	.	.	00r	.
8E\	.	.	.	.	.	.	.	.	.
8E\	.	.	.	.	.	.	.	.	.
8C\J	6	.	.	.	.	.	.	.	.
8C\L	.	.	.	.	.	.	.	.	.
8G#X\	6	.	.	.	.	.	.	.	.
8A\	.	.	.	.	.	.	.	.	.
8A\J	.	.	.	.	.	.	.	.	.
=26	=26	=26	=26	=26	=26	=26	=26	=26	=26
8A\L	.	1ryy	1ryy	1ryy	1ryy	00r	.	.	.
8F\	.	.	.	.	.	.	.	.	.
8C\	6	.	.	.	.	.	.	.	.
8D\J	.	.	.	.	.	.	.	.	.
8E\L	.	.	.	.	.	.	.	.	.
8E\	4	.	.	.	.	.	.	.	.
8E\	.	.	.	.	.	.	.	.	.
8E\J	#	.	.	.	.	.	.	.	.
=27	=27	=27	=27	=27	=27	=27	=27	=27	=27
4AA/	.	1ryy	1ryy	1ryy	1ryy	.	.	.	.
!LO:LB:g=original	!	!	!	!	!	!	!	!	!
8C/L	6	.	.	.	.	.	.	.	.
8AA/J	.	.	.	.	.	.	.	.	.
8E\L	#	.	.	.	.	.	.	.	.
8F\	.	.	.	.	.	.	.	.	.
8D\	.	.	.	.	.	.	.	.	.
8E\J	#	.	.	.	.	.	.	.	.
=28	=28	=28	=28	=28	=28	=28	=28	=28	=28
!LO:TX:a:t=P:problem=mixed beam	!	!	!	!	!	!	!	!	!
8AA/L	.	1ryy	1ryy	1ryy	1ryy	.	.	.	.
8A\	.	.	.	.	.	.	.	.	.
8E\	#	.	.	.	.	.	.	.	.
8EE/J	.	.	.	.	.	.	.	.	.
!LO:TX:a:t=P:problem=mixed beam	!	!	!	!	!	!	!	!	!
8AA/L	.	.	.	.	.	.	.	.	.
8E\J	#	.	.	.	.	.	.	.	.
8C/L	6	.	.	.	.	.	.	.	.
8AA'/J	.	.	.	.	.	.	.	.	.
=29	=29	=29	=29	=29	=29	=29	=29	=29	=29
!LO:TX:a:t=P:problem=skreślony niepełny takt	!	!	!	!	!	!	!	!	!
8D\L	.	1ryy	1ryy	1ryy	1ryy	.	.	00r	.
8C\J	6	.	.	.	.	.	.	.	.
4F\	7	.	.	.	.	.	.	.	.
.	6	.	.	.	.	.	.	.	.
8E\L	#	.	.	.	.	.	.	.	.
8E\	.	.	.	.	.	.	.	.	.
8G#X\	6	.	.	.	.	.	.	.	.
8G#\J	.	.	.	.	.	.	.	.	.
=30	=30	=30	=30	=30	=30	=30	=30	=30	=30
!LO:TX:a:t=P:problem=mixed beam	!	!	!	!	!	!	!	!	!
8A/L	6\	1ryy	1ryy	1ryy	1ryy	00r	.	.	.
8AA\	.	.	.	.	.	.	.	.	.
8C\	6	.	.	.	.	.	.	.	.
8C\J	.	.	.	.	.	.	.	.	.
8D/L	.	.	.	.	.	.	.	.	.
8AA/	.	.	.	.	.	.	.	.	.
8AA/	.	.	.	.	.	.	.	.	.
8AA/J	.	.	.	.	.	.	.	.	.
=31	=31	=31	=31	=31	=31	=31	=31	=31	=31
!LO:TX:a:t=P:problem=mixed beam	!	!	!	!	!	!	!	!	!
8BB/L	6\	1ryy	1ryy	1ryy	1ryy	.	.	.	.
8B\	.	.	.	.	.	.	.	.	.
8G#X\	6	.	.	.	.	.	.	.	.
8E\J	.	.	.	.	.	.	.	.	.
!LO:TX:a:t=P:problem=mixed beam	!	!	!	!	!	!	!	!	!
8AA/L	.	.	.	.	.	.	.	.	.
8A\	.	.	.	.	.	.	.	.	.
8A\	.	.	.	.	.	.	.	.	.
8A\J	.	.	.	.	.	.	.	.	.
=32	=32	=32	=32	=32	=32	=32	=32	=32	=32
8B\L	6\	1ryy	1ryy	1ryy	1ryy	.	.	.	.
8A\	.	.	.	.	.	.	.	.	.
8G#X\	6	.	.	.	.	.	.	.	.
8E\J	#	.	.	.	.	.	.	.	.
8D#X/L	.	.	.	.	.	.	.	.	.
8BB/	#	.	.	.	.	.	.	.	.
8C/	.	.	.	.	.	.	.	.	.
8BB/J	.	.	.	.	.	.	.	.	.
=33	=33	=33	=33	=33	=33	=33	=33	=33	=33
8BB/L	.	1ryy	1ryy	1ryy	1ryy	.	.	0r	.
8AA/J	.	.	.	.	.	.	.	.	.
4BB/	4	.	.	.	.	.	.	.	.
.	#	.	.	.	.	.	.	.	.
!LO:LB:g=original	!	!	!	!	!	!	!	!	!
4E\	.	.	.	.	.	.	.	.	.
8G\L	6	.	.	.	.	.	.	.	.
8E\J	.	.	.	.	.	.	.	.	.
=34	=34	=34	=34	=34	=34	=34	=34	=34	=34
8B\L	#	1ryy	1ryy	1ryy	1ryy	0r	.	.	.
8c\	.	.	.	.	.	.	.	.	.
8A\	6	.	.	.	.	.	.	.	.
8B\J	#	.	.	.	.	.	.	.	.
4E\	.	.	.	.	.	.	.	.	.
4r	.	.	.	.	.	.	.	.	.
=35	=35	=35	=35	=35	=35	=35	=35	=35	=35
!LO:TX:a:t=P:problem=nadmiarowy takt w [A]	!	!LO:TX:a:t=P:problem=nadmiarowy takt w [A]	!LO:TX:a:t=P:problem=nadmiarowy takt w [A]	!LO:TX:a:t=P:problem=nadmiarowy takt w [A]	!	!LO:TX:a:t=P:problem=zbędny takt (pauza)	!	!LO:TX:a:t=P:problem=nadmiarowy takt w [A]	!
1ryy	.	1ryy	1ryy	1ryy	1ryy	.	.	1ryy	.
=36	=36	=36	=36	=36	=36	=36	=36	=36	=36
!LO:TX:a:t=T.	!	!	!	!	!	!	!	!	!
1C	.	1ryy	1ryy	1ryy	1ryy	4.g\	Glo-	4.cc\	Glo-
.	.	.	.	.	.	8g\	-ri-	8cc\	-ri-
*	*	*	*	*	*	*2\right	*	*	*
.	.	.	.	.	.	2g\	-a	2cc\	-a
=37	=37	=37	=37	=37	=37	=37	=37	=37	=37
2E\	6	1ryy	1ryy	1ryy	1ryy	4g\	Pa-	4gg\	Pa-
.	.	.	.	.	.	8g\	-tri	8b-X\	-tri
.	.	.	.	.	.	8g\	(et)	8b-\	(et)
2F\	.	.	.	.	.	8.g\	Fi-	8.b-\	Fi-
.	.	.	.	.	.	16f\	-li-	16a\	-li-
!	!	!	!	!	!	!LO:N:vis=8	!	!	!
.	.	.	.	.	.	4f\	-o	8a\	-o
.	.	.	.	.	.	.	.	8a\	(et)
=38	=38	=38	=38	=38	=38	=38	=38	=38	=38
2F#X\	6	1ryy	1ryy	1ryy	1ryy	8a\	ſpi-	8aa\	ſpi-
.	.	.	.	.	.	8a\	-ri-	8cc\	-ri-
.	.	.	.	.	.	8a\	-tu-	8cc\	-tu-
.	.	.	.	.	.	8a\	-i	8cc\	-i
4G\	.	.	.	.	.	8g\L	ſan-	8b\L	ſan-
.	.	.	.	.	.	8d\J	.	8cc\J	.
4B\	6	.	.	.	.	[4g\	.	4dd\	.
!	!	!	!	!	!	!LO:LB:g=original	!	!	!
=39	=39	=39	=39	=39	=39	=39	=39	=39	=39
!	!	!	!	!	!	!LO:TX:a:t=P:problem=brak zakończenia ligatury	!	!	!
2A\	7	1ryy	1ryy	1ryy	1ryy	4g\]	.	2cc\	.
.	6\	.	.	.	.	4f#X\	.	.	.
2G\	.	.	.	.	.	2g\	-cto	2b\	-cto
=40	=40	=40	=40	=40	=40	=40	=40	=40	=40
!LO:TX:a:B:t=allegro	!	!	!	!	!	!	!	!	!
4.G\	.	1ryy	1ryy	1ryy	1ryy	4.g\	ſi-	4.b\	ſi-
8G\	.	.	.	.	.	8g\	-cut	8b\	-cut
8B\L	.	.	.	.	.	8g\	e-	8dd\	e-
8d\	.	.	.	.	.	8g\	-rat	8b\	-rat
!	!	!	!	!	!	!	!	!LO:LB:g=original	!
8B\	.	.	.	.	.	8g\	in	8dd\	in
8G\J	.	.	.	.	.	8g\	prin-	8dd\	prin-
=41	=41	=41	=41	=41	=41	=41	=41	=41	=41
8.c\L	.	1ryy	1ryy	1ryy	1ryy	8.g\	-ci-	8.ee\	-ci-
16c\Jk	.	.	.	.	.	16g\	-pi-	16ee\	-pi-
!LO:TX:a:t=P:problem=mixed beam	!	!	!	!	!	!	!	!	!
8c\L	.	.	.	.	.	8g\	-o	8ee\	-o
8C/J	.	.	.	.	.	8g\	(et)	8ee\	(et)
!LO:TX:a:t=P:problem=mixed beam	!	!	!	!	!	!	!	!	!
8F\L	.	.	.	.	.	4a\	nunc	4ff\	nunc
8FF/J	.	.	.	.	.	.	.	.	.
8r	.	.	.	.	.	8r	.	8r	.
8D\	.	.	.	.	.	8a\	(et)	8ff\	(et)
=42	=42	=42	=42	=42	=42	=42	=42	=42	=42
!LO:TX:a:t=P:problem=mixed beam	!	!	!	!	!	!	!	!	!
8G\L	.	1ryy	1ryy	1ryy	1ryy	8g\	sem-	8dd\	sem-
8GG/J	.	.	.	.	.	8g\	-per	8dd\	-per
8r	.	.	.	.	.	8r	.	8r	.
8E\	6	.	.	.	.	8b\	(et)	8ee\	(et)
8A\L	.	.	.	.	.	8a\	nunc	8cc\	nunc
8G\J	.	.	.	.	.	8e\	(et)	8cc\	(et)
[4F\	.	.	.	.	.	[<4a\	sem-	[4cc\	sem-
!LO:LB:g=original	!	!	!	!	!	!	!	!	!
=43	=43	=43	=43	=43	=43	=43	=43	=43	=43
!LO:TX:a:t=P:problem=brak zakończenia ligatury	!	!	!	!	!	!	!	!	!
8F\L]	.	1ryy	1ryy	1ryy	1ryy	8a\L]	.	8cc\L]	.
8E\	.	.	.	.	.	8g\	.	8g\	.
8D\	.	.	.	.	.	8f\	.	8b\J	.
8C\J	.	.	.	.	.	8e\J	.	8cc\	-per
!	!	!	!	!	!	!LO:LB:g=original	!	!	!
2D\	7	.	.	.	.	2f\	.	4cc\	sem-
.	6	.	.	.	.	.	.	4b\	.
=44	=44	=44	=44	=44	=44	=44	=44	=44	=44
2C/	.	1ryy	1ryy	1ryy	1ryy	2g\	-per	2cc;\	-per
*clefC1	*	*	*	*	*	*	*	*	*
4.cc\	.	.	.	.	.	2r	.	4.cc\	(et)
16b\LL	.	.	.	.	.	.	.	16b\LL	in
16a\JJ	.	.	.	.	.	.	.	16a\JJ	.
!	!	!	!	!	!	!	!	!LO:LB:g=original	!
=45	=45	=45	=45	=45	=45	=45	=45	=45	=45
8b\L	.	1ryy	1ryy	1ryy	1ryy	1r	.	8b\	sae-
8g\	.	.	.	.	.	.	.	16a\	-cu-
.	.	.	.	.	.	.	.	16g\	-la
8a\	.	.	.	.	.	.	.	8a\	sae-
8b\J	.	.	.	.	.	.	.	8b\	-cu-
8cc\L	.	.	.	.	.	.	.	8cc\L	-lo-
8ee\	.	.	.	.	.	.	.	8ee\	.
8dd\	.	.	.	.	.	.	.	8dd\	.
8cc\J	.	.	.	.	.	.	.	8cc\J	.
=46	=46	=46	=46	=46	=46	=46-	=46	=46	=46
*^	*	*	*	*	*	*	*	*	*
8b\L	4rcyy	.	1ryy	1ryy	1ryy	1ryy	2r	.	8b\	.
16a\L	.	.	.	.	.	.	.	.	16a\LL	-rum
16g\JJ	.	.	.	.	.	.	.	.	16g\JJ	.
4aT\	4rcyy	.	.	.	.	.	.	.	4aT\	a-
4g/	4.g\	.	.	.	.	.	4.g\	Et	4g\	-men
8r	.	.	.	.	.	.	.	.	8r	.
8g/	8g\	.	.	.	.	.	16e\LL	in	8g\	a-
.	.	.	.	.	.	.	16d\JJ	.	.	.
=47	=47	=47	=47	=47	=47	=47	=47	=47	=47	=47
8cc/L	8e\L	.	1ryy	1ryy	1ryy	1ryy	8e\	sae-	8cc\L	.
16dd/L	8c\	.	.	.	.	.	16d\	-cu-	8ee\J	.
16ee/JJ	.	.	.	.	.	.	16c\	-la	.	.
8dd/L	8d\	.	.	.	.	.	8d\	sae-	8dd\L	.
16cc/L	8e\J	.	.	.	.	.	8e\	-cu-	16cc\L	.
16b/JJ	.	.	.	.	.	.	.	.	16b\JJ	.
4a/	8f\L	.	.	.	.	.	8f\L	-lo-	4a\	.
.	16g\L	.	.	.	.	.	8a\	.	.	.
.	16a\JJ	.	.	.	.	.	.	.	.	.
4b/	8g\L	.	.	.	.	.	8g\	.	4b\	.
.	8f\J	.	.	.	.	.	8f\J	.	.	.
=48	=48	=48	=48	=48	=48	=48	=48	=48	=48	=48
16cc/LL	8e\L	.	1ryy	1ryy	1ryy	1ryy	8e\	.	16cc\LL	.
16g/JJ	.	.	.	.	.	.	.	.	16g\JJ	.
4cc/	16d\L	.	.	.	.	.	16d\LL	-rum	4cc\	.
.	16c\JJ	.	.	.	.	.	16c\JJ	.	.	.
.	4d\	.	.	.	.	.	4d\	a-	.	.
8b/	.	.	.	.	.	.	.	.	8b\	.
*clefC4	*	*	*	*	*	*	*	*	*	*
4.c\	4rFyy	.	.	.	.	.	4c\	-men	8cc\	-men
.	.	.	.	.	.	.	.	.	4ee\	a-
.	4rFyy	.	.	.	.	.	8r	.	.	.
16B\LL	.	.	.	.	.	.	8d\	a-	16dd\LL	.
16A\JJ	.	.	.	.	.	.	.	.	16cc\JJ	.
*v	*v	*	*	*	*	*	*	*	*	*
=49	=49	=49	=49	=49	=49	=49	=49	=49	=49
8B\L	6	1ryy	1ryy	1ryy	1ryy	8g\L	.	8dd\L	.
8G\	.	.	.	.	.	8b\J	.	16cc\L	.
.	.	.	.	.	.	.	.	16b\JJ	.
!	!	!	!	!	!	!	!	!LO:LB:g=original	!
!	!	!	!	!	!	!	!	!LO:TX:a:t=P:problem=fragment na karcie nr 4 oraz nr 13 (to samo)	!
8A\	.	.	.	.	.	8a\L	.	8cc\L	.
8B\J	.	.	.	.	.	16g\L	.	8dd\J	.
.	.	.	.	.	.	16f#X\JJ	.	.	.
!	!	!	!	!	!	!LO:LB:g=original	!	!	!
8c\L	.	.	.	.	.	4e\	.	4g\	.
16d\L	#	.	.	.	.	.	.	.	.
16e\JJ	.	.	.	.	.	.	.	.	.
!LO:LB:g=original	!	!	!	!	!	!	!	!	!
!LO:TX:a:t=P:problem=skreślone 8 taktów	!	!	!	!	!	!	!	!	!
8d\L	#	.	.	.	.	4f#X\	.	8a\L	.
8c\J	.	.	.	.	.	.	.	16b\L	.
.	.	.	.	.	.	.	.	16cc\JJ	.
=50	=50	=50	=50	=50	=50	=50	=50	=50	=50
8B\L	6	1ryy	1ryy	1ryy	1ryy	16g\LL	.	8dd\L	.
.	.	.	.	.	.	16d\JJ	.	.	.
16A\L	.	.	.	.	.	4g\	.	16cc\L	.
16G\JJ	.	.	.	.	.	.	.	16b\JJ	.
4A\	7	.	.	.	.	.	.	4cc\	.
.	6	.	.	.	.	8f#X\	.	.	.
*clefF4	*	*	*	*	*	*	*	*	*
4.G\	.	.	.	.	.	4g\	-men	8b\	-men
.	.	.	.	.	.	.	.	4b\	a-
.	.	.	.	.	.	8r	.	.	.
16E\LL	.	.	.	.	.	16g\LL	a-	16cc\LL	-men
!	!	!	!	!	!	!LO:TX:a:t=P:problem=♮ above	!	!	!
16D\JJ	.	.	.	.	.	16fn\JJ	.	16dd\JJ	.
=51	=51	=51	=51	=51	=51	=51	=51	=51	=51
8E\L	6	1ryy	1ryy	1ryy	1ryy	8g\L	.	8ee\	a-
16D\L	.	.	.	.	.	16f\L	.	8ee\	-men
16C\JJ	.	.	.	.	.	16e\JJ	.	.	.
8D\L	6	.	.	.	.	8f\L	.	4r	.
8E\J	6	.	.	.	.	8g\J	.	.	.
8F\L	.	.	.	.	.	4c\	.	2r	.
8A\	.	.	.	.	.	.	.	.	.
8G\	.	.	.	.	.	8d\L	.	.	.
8F\J	.	.	.	.	.	16e\L	.	.	.
.	.	.	.	.	.	16f\JJ	.	.	.
=52	=52	=52	=52	=52	=52	=52	=52	=52	=52
8E\L	6	1ryy	1ryy	1ryy	1ryy	8g\L	.	2r	.
16D\L	.	.	.	.	.	16f\L	.	.	.
16C\JJ	.	.	.	.	.	16e\JJ	.	.	.
4D\	7	.	.	.	.	4f\	.	.	.
.	6\	.	.	.	.	.	.	.	.
8C/L	.	.	.	.	.	4e\	-men	4.cc\	(et)
8C/	.	.	.	.	.	.	.	.	.
8AA/	.	.	.	.	.	8a\	a-	.	.
8D/J	#	.	.	.	.	8f\	-men	16b\LL	in
.	.	.	.	.	.	.	.	16a\JJ	.
=53	=53	=53	=53	=53	=53	=53	=53	=53	=53
8G\L	.	1ryy	1ryy	1ryy	1ryy	8d\L	a-	8b\	sae-
8B\J	.	.	.	.	.	8g\	.	16a\	-cu-
.	.	.	.	.	.	.	.	16g\	-la
8A\L	.	.	.	.	.	8d\	.	8a\	sae-
16G\L	.	.	.	.	.	8f#X\J	.	8b\	-cu-
16F#X\JJ	.	.	.	.	.	.	.	.	.
4E\	6	.	.	.	.	4g\	.	8cc\L	-lo-
.	.	.	.	.	.	.	.	8ee\	.
4F#X\	6	.	.	.	.	4a\	.	8dd\	.
.	.	.	.	.	.	.	.	8cc\J	.
!	!	!	!	!	!	!LO:LB:g=original	!	!LO:LB:g=original	!
=54	=54	=54	=54	=54	=54	=54	=54	=54	=54
8G\L	.	1ryy	1ryy	1ryy	1ryy	2d\	.	4.b\	.
8D\	.	.	.	.	.	.	.	.	.
8G\	.	.	.	.	.	.	.	.	.
8Fn\J	6	.	.	.	.	.	.	8a\	-rum
2E\	#	.	.	.	.	2e\	.	8g#X\	a-
.	4	.	.	.	.	.	.	4a\	.
.	#	.	.	.	.	.	.	8g#\	.
!LO:LB:g=original	!	!	!	!	!	!	!	!	!
=55	=55	=55	=55	=55	=55	=55	=55	=55	=55
8AA/	.	1ryy	1ryy	1ryy	1ryy	4d\	-men	8a\	-men
*clefC4	*	*	*	*	*	*	*	*	*
8A\L	.	.	.	.	.	.	.	8cc\L	a-
8B\	.	.	.	.	.	4r	.	8dd\	.
8c\J	.	.	.	.	.	.	.	8ee\J	.
8d\L	.	.	.	.	.	2r	.	4a\	.
8f\	.	.	.	.	.	.	.	.	.
8e\	#	.	.	.	.	.	.	4b\	.
8d\J	.	.	.	.	.	.	.	.	.
=56	=56	=56	=56	=56	=56	=56	=56	=56	=56
8c\L	6	1ryy	1ryy	1ryy	1ryy	2r	.	8cc\L	.
16B\L	.	.	.	.	.	.	.	16dd\L	.
16A\JJ	7	.	.	.	.	.	.	16ee\JJ	.
4B\	6\	.	.	.	.	.	.	4dd\	.
4A\	.	.	.	.	.	4.a\	(et)	4cc\	-men
*clefF4	*	*	*	*	*	*	*	*	*
4AA/	.	.	.	.	.	.	.	8a\L	a-
.	.	.	.	.	.	16g\LL	in	16b\L	.
.	.	.	.	.	.	16f#X\JJ	.	16cc\JJ	.
=57	=57	=57	=57	=57	=57	=57	=57	=57	=57
8E\L	.	1ryy	1ryy	1ryy	1ryy	8g\	sae-	8b\L	.
8G\J	.	.	.	.	.	16f#X\	-cu-	8ee\J	.
.	.	.	.	.	.	16e\	-la	.	.
8F#X\L	6\	.	.	.	.	8f#\	sae-	8dd#X\L	.
16E\L	.	.	.	.	.	8g\	-cu-	8b\J	.
16D#X\JJ	.	.	.	.	.	.	.	.	.
4C#X/	6	.	.	.	.	8a\L	-lo-	4ee\	.
.	.	.	.	.	.	8cc\	.	.	.
4D#X/	6	.	.	.	.	8b\	.	4ff#X\	.
.	5	.	.	.	.	8a\J	.	.	.
=58	=58	=58	=58	=58	=58	=58	=58	=58	=58
16E\LL	.	1ryy	1ryy	1ryy	1ryy	8g\	.	4b\	-men
16BB\JJ	.	.	.	.	.	.	.	.	.
4E\	3	.	.	.	.	16f#X\LL	-rum	.	.
.	.	.	.	.	.	16e\JJ	.	.	.
.	2	.	.	.	.	4f#\	a-	4r	.
8D#X\	.	.	.	.	.	.	.	.	.
4E\	.	.	.	.	.	4e\	-men	2r	.
4Dn\	#4 2	.	.	.	.	8r	.	.	.
.	.	.	.	.	.	16f#X\LL	a-	.	.
.	.	.	.	.	.	16g#X\JJ	.	.	.
=59	=59	=59	=59	=59	=59	=59	=59	=59	=59
8C/L	6	1ryy	1ryy	1ryy	1ryy	16a\LL	.	1r	.
.	.	.	.	.	.	16e\JJ	.	.	.
16BB/L	.	.	.	.	.	4a\	.	.	.
16AA/JJ	7	.	.	.	.	.	.	.	.
4BB/	6\	.	.	.	.	.	.	.	.
.	.	.	.	.	.	8g#X\	.	.	.
!LO:TX:a:t=P:problem=mixed beam	!	!	!	!	!	!LO:LB:g=original	!	!	!
8AA/L	.	.	.	.	.	8a\	-men	.	.
8A\J	.	.	.	.	.	8a\L	a-	.	.
!LO:LB:g=original	!	!	!	!	!	!	!	!	!
8B\L	6	.	.	.	.	8g#\	.	.	.
8G\J	.	.	.	.	.	8f\J	.	.	.
!	!	!	!	!	!	!	!	!LO:LB:g=original	!
=60	=60	=60	=60	=60	=60	=60	=60	=60	=60
*^	*	*	*	*	*	*	*	*	*
!LO:TX:a:t=P:problem=mixed beam	!	!	!	!	!	!	!	!	!	!
8c\L	4ryy	.	1ryy	1ryy	1ryy	1ryy	4e\	-men	4.cc\	Et
8C/J	.	.	.	.	.	.	.	.	.	.
*clefC1	*	*	*	*	*	*	*	*	*	*
8cc/L	8r	.	.	.	.	.	8r	.	.	.
16b/L	8c\	.	.	.	.	.	8c\	a-	16b\LL	in
16a/JJ	.	.	.	.	.	.	.	.	16a\JJ	.
8b/L	8g\L	.	.	.	.	.	8g\L	.	8b\	sae-
16a/L	8b\J	.	.	.	.	.	8b\	.	16a\	-cu-
16g/JJ	.	.	.	.	.	.	.	.	16g\	-la
8a/L	8a\L	.	.	.	.	.	8a\	.	8a\	sae-
8b/J	8g\J	.	.	.	.	.	8g\J	.	8b\	-cu-
=61	=61	=61	=61	=61	=61	=61	=61	=61	=61	=61
8cc/L	4e\	.	1ryy	1ryy	1ryy	1ryy	4e\	.	8cc\L	-lo-
8ee/	.	.	.	.	.	.	.	.	8ee\	.
8dd/	4f#X\	.	.	.	.	.	4f#X\	.	8dd\	.
8cc/J	.	.	.	.	.	.	.	.	8cc\J	.
*clefF4	*	*	*	*	*	*	*	*	*	*
4.G\	4ryy	.	.	.	.	.	8f#\L	.	8b\	.
.	.	.	.	.	.	.	8e\J	.	4cc\	.
.	4ryy	.	.	.	.	.	8d\L	.	.	.
16E\LL	.	.	.	.	.	.	16g\L	.	8b\	.
16D\JJ	.	.	.	.	.	.	16f#\JJ	.	.	.
*v	*v	*	*	*	*	*	*	*	*	*
=62	=62	=62	=62	=62	=62	=62	=62	=62	=62
8E\L	6	1ryy	1ryy	1ryy	1ryy	8g\L	.	8cc\	-rum
16D\L	.	.	.	.	.	16f\L	.	8ee\	a-
16C\JJ	.	.	.	.	.	16e\JJ	.	.	.
8D\L	6	.	.	.	.	8f\L	.	8dd\L	.
8E\J	6	.	.	.	.	8g\J	.	16cc\L	.
.	.	.	.	.	.	.	.	16b\JJ	.
8F\L	.	.	.	.	.	4c\	-men	4a\	.
8A\	.	.	.	.	.	.	.	.	.
8G\	.	.	.	.	.	8d\L	a-	4b\	.
8F\J	.	.	.	.	.	16e\L	.	.	.
.	.	.	.	.	.	16f\JJ	.	.	.
=63	=63	=63	=63	=63	=63	=63	=63	=63	=63
8E\L	6	1ryy	1ryy	1ryy	1ryy	8g\L	.	16cc\LL	.
.	.	.	.	.	.	.	.	16g\JJ	.
16D\L	.	.	.	.	.	16f\L	.	4cc\	.
16C\JJ	.	.	.	.	.	16e\JJ	.	.	.
4D\	7	.	.	.	.	4f\	.	.	.
.	6	.	.	.	.	.	.	8b\	.
8C\L	.	.	.	.	.	8e\	-men	4cc\	-men
8E\	.	.	.	.	.	8e\	a-	.	.
8D\	.	.	.	.	.	8g\L	.	4r	.
8C\J	.	.	.	.	.	16f\L	.	.	.
.	.	.	.	.	.	16e\JJ	.	.	.
!LO:LB:g=original	!	!	!	!	!	!LO:LB:g=original	!	!	!
=64	=64	=64	=64	=64	=64	=64	=64	=64	=64
4D\	-6	1ryy	1ryy	1ryy	1ryy	4f\	.	4r	.
4E\	5	.	.	.	.	4g\	.	8r	.
!	!	!	!	!	!	!	!	!LO:LB:g=original	!
.	.	.	.	.	.	.	.	8cc\	a-
4F\	.	.	.	.	.	8a\	-men	8ff\L	.
.	.	.	.	.	.	8a\L	a-	8aa\J	.
8c\L	.	.	.	.	.	8b-X\	.	8gg\L	.
8A\J	6	.	.	.	.	8cc\J	.	16ff\L	.
.	.	.	.	.	.	.	.	16ee\JJ	.
=65	=65	=65	=65	=65	=65	=65	=65	=65	=65
8G\L	-	1ryy	1ryy	1ryy	1ryy	8b-X\L	.	4dd\	.
8F\	.	.	.	.	.	8a\J	.	.	.
8E\	6 5	.	.	.	.	8g\L	.	4ee\	.
8C\J	.	.	.	.	.	16f\L	.	.	.
.	.	.	.	.	.	16e\JJ	.	.	.
!LO:TX:a:t=P:problem=mixed beam	!	!	!	!	!	!	!	!	!
8F\L	.	.	.	.	.	16f\LL	.	8ff\	.
.	.	.	.	.	.	16c\JJ	.	.	.
8AA/	6	.	.	.	.	4f\	.	8cc\	-men
*	*	*	*	*	*	*	*	*	*ij
8BB-X/	6 5	.	.	.	.	.	.	4b-X\	a-
8C/J	.	.	.	.	.	8e\	.	.	.
=66	=66	=66	=66	=66	=66	=66	=66	=66	=66
8F\L	.	1ryy	1ryy	1ryy	1ryy	4f\	-men	8a\	-men
*	*	*	*	*	*	*	*	*	*Xij
8F\	.	.	.	.	.	.	.	4cc\	a-
8F\	.	.	.	.	.	4r	.	.	.
8F\J	6	.	.	.	.	.	.	8dd\	.
8E\L	6	.	.	.	.	2r	.	8ee\	-men
16D\L	.	.	.	.	.	.	.	8ee\	a-
16C\JJ	7	.	.	.	.	.	.	.	.
4D\	6	.	.	.	.	.	.	4ff\	.
=67	=67	=67	=67	=67	=67	=67	=67	=67	=67
4C/	.	1ryy	1ryy	1ryy	1ryy	4.g\	(et)	4ee\	-men
*clefC4	*	*	*	*	*	*	*	*	*
8c\L	.	.	.	.	.	.	.	8r	.
8c\J	.	.	.	.	.	16e\LL	in	8g\	a-
.	.	.	.	.	.	16d\JJ	.	.	.
!LO:TX:a:t=P:problem=mixed beam	!	!	!	!	!	!	!	!	!
8c\L	.	.	.	.	.	8e\	sae-	8cc\L	.
8C/J	.	.	.	.	.	16d\	-cu-	8ee\J	.
.	.	.	.	.	.	16c\	-la	.	.
8F/L	.	.	.	.	.	8d\	sae-	8dd\L	.
8c/J	.	.	.	.	.	8e\	-cu-	16cc\L	.
.	.	.	.	.	.	.	.	16b\JJ	.
=68	=68	=68	=68	=68	=68	=68	=68	=68	=68
8d\L	.	1ryy	1ryy	1ryy	1ryy	8f\L	-lo-	4a\	.
8c\	.	.	.	.	.	8a\	.	.	.
8B\	6	.	.	.	.	8g\	.	4b\	.
8G\J	.	.	.	.	.	8f\J	.	.	.
!LO:TX:a:t=P:problem=mixed beam	!	!	!	!	!	!	!	!	!
8c\L	.	.	.	.	.	8e\	.	16cc\LL	.
.	.	.	.	.	.	.	.	16g\JJ	.
8E/	6	.	.	.	.	16d\LL	-rum	4cc\	.
.	.	.	.	.	.	16c\JJ	.	.	.
8F/	6 5	.	.	.	.	4d\	a-	.	.
8G/J	.	.	.	.	.	.	.	8b\	.
!LO:LB:g=original	!	!	!	!	!	!	!	!LO:LB:g=original	!
=69	=69	=69	=69	=69	=69	=69	=69	=69	=69
*clefF4	*	*	*	*	*	*	*	*	*
4.c\	.	1ryy	1ryy	1ryy	1ryy	4c\	-men	8cc\	-men
.	.	.	.	.	.	.	.	8g\L	a-
!	!	!	!	!	!	!LO:PB:g=original	!	!	!
!	!	!	!	!	!	!LO:TX:a:t=P:problem=brak dalszej części partii	!	!	!
.	.	.	.	.	.	4ryy	.	8cc\	.
16B\LL	.	.	.	.	.	.	.	8ee\J	.
16A\JJ	.	.	.	.	.	.	.	.	.
8B\L	6	.	.	.	.	2ryy	.	8dd\L	.
16A\L	.	.	.	.	.	.	.	16cc\L	.
16G\JJ	.	.	.	.	.	.	.	16b\JJ	.
8A\L	6	.	.	.	.	.	.	8cc\L	.
8B\J	6	.	.	.	.	.	.	8dd\J	.
=70	=70	=70	=70	=70	=70	=70	=70	=70	=70
8c\L	.	1ryy	1ryy	1ryy	1ryy	1ryy	.	8ee\L	.
8e\	.	.	.	.	.	.	.	8cc\	.
8d\	#	.	.	.	.	.	.	8dd\	.
8c\J	.	.	.	.	.	.	.	8ee\J	.
8B\L	6	.	.	.	.	.	.	8dd\L	.
16A\L	.	.	.	.	.	.	.	16cc\L	.
16G\JJ	.	.	.	.	.	.	.	16b\JJ	.
4A\	7	.	.	.	.	.	.	4cc\	.
.	n6	.	.	.	.	.	.	.	.
=71	=71	=71	=71	=71	=71	=71	=71	=71	=71
!LO:N:xstem:cue	!	!	!	!	!	!	!	!LO:N:xstem:cue	!
8A\	.	1ryy	1ryy	1ryy	1ryy	1ryy	.	8cc\	.
16G\LL	.	.	.	.	.	.	.	16b\LL	.
16F\JJ	.	.	.	.	.	.	.	16a\JJ	.
4.G\	7	.	.	.	.	.	.	4.b\	.
.	6	.	.	.	.	.	.	.	.
16F\LL	.	.	.	.	.	.	.	16a\LL	.
16E\JJ	.	.	.	.	.	.	.	16g\JJ	.
[4F\	7	.	.	.	.	.	.	8a\L	.
.	6	.	.	.	.	.	.	8dd\J	.
=72	=72	=72	=72	=72	=72	=72	=72	=72	=72
8F\L]	4 2	1ryy	1ryy	1ryy	1ryy	1ryy	.	8b\	.
8E\	6	.	.	.	.	.	.	4cc\	.
!LO:TX:a:t=P:problem=skreślona nuta 8F	!	!	!	!	!	!	!	!	!
8F#X\	6 5	.	.	.	.	.	.	.	.
8G\J	.	.	.	.	.	.	.	8b\	-men
2A\	7	.	.	.	.	.	.	2cc\	a-
.	6\	.	.	.	.	.	.	.	.
=73	=73	=73	=73	=73	=73	=73	=73	=73	=73
[1G|	.	1ryy	1ryy	1ryy	1ryy	1ryy	.	8b\L	.
.	.	.	.	.	.	.	.	8cc\J	.
.	.	.	.	.	.	.	.	4.dd\	.
!	!	!	!	!	!	!	!	!LO:TX:a:t=P:problem=skreślona belka	!
.	.	.	.	.	.	.	.	8g\	-men
.	.	.	.	.	.	.	.	8cc\L	a-
.	.	.	.	.	.	.	.	16b\L	.
.	.	.	.	.	.	.	.	16a\JJ	.
!	!	!	!	!	!	!	!	!LO:LB:g=original	!
=74	=74	=74	=74	=74	=74	=74	=74	=74	=74
1G]	.	1ryy	1ryy	1ryy	1ryy	1ryy	.	4b\	.
.	.	.	.	.	.	.	.	2cc\	.
.	.	.	.	.	.	.	.	4b\	.
=75	=75	=75	=75	=75	=75	=75	=75	=75	=75
1C	.	1ryy	1ryy	1ryy	1ryy	1ryy	.	1cc	-men.
==	==	==	==	==	==	==	==	==	==
*-	*-	*-	*-	*-	*-	*-	*-	*-	*-
!!!system-decoration: [g1][g2]s7
!!!RDF**kern: < = below
!!!RDF**kern: | = vertical stroke
!!!ENC: Marta Lawrence
!!!END: 2021-01-01
!!!ENC: Andrzej Kubiczek
!!!END: 2020-07-05
